X:1
T:Die schöne Müllerin (D.795)
T:Am Feierabend
T:Am Feierabend
T:Franz Schubert
T:Die schöne Müllerin (D.795) - N°5
T:Friedrich Müller
T:OpenScore (CC0) 
T:OpenScore (CC0) 
T:OpenScore (CC0) 
T:OpenScore (CC0) 
C:Franz Schubert
Z:Wilhelm Müller
Z:OpenScore (CC0)
Z:
%%score 1 { ( 2 4 ) | ( 3 5 ) }
L:1/8
Q:1/4=125
M:6/8
K:C
V:1 treble nm="Hautbois"
V:2 bass nm="Piano"
V:4 bass 
V:3 bass 
V:5 bass 
V:1
"^Ziemlich geschwind." z6 | z6 | z6 | z6 | z6 | z6 | z2 z z!mp! E E | c2 B A ^G A | B2 E z e d | %9
w: ||||||Hätt'~ ich|tau- send Ar- me zu|rüh- ren! könnt' ich|
 c3/2 B/ A A2 f | e2 B z B B | B B ^d ^f2 d | e2 B z ^c B | B2 ^d ^f2 d | e2 B z2 z | %15
w: brau- send die Rä- der|füh- ren! könnt' ich|we- hen durch al- le|Hai- ne! könnt ich|dre- hen al- le|Stei- ne!|
 ^c2 c (dc) d | e2 ^c A2 z | ^c2 c (dc) d | e2 ^c A2 z | A2 A e2 e | (^d2 ^f-) f3/2 e/ =d | %21
w: dass die schö- * ne|Mül- le- rin|merk- te mei- * nen|treu- en Sinn,|dass die schö- ne|Mül- * * le- rin|
 (^cd) c (B^f) ^F | (A3- A^c) B | A2 z z2 z | z6 | c2 z z2 c | c2 c (cB) A | G2 z (Gd) f | %28
w: merk- * te mei- * nen|treu- * * en|Sinn!||Ach, wie|ist mein Arm * so|schwach! was * ich|
 e2 c (Gd) f | e2 c e2 e | (gf) e (dc) d | f2 e ^G2 e | e2 A e2 B | c3 (^Ge) e | e2 A f2 B | %35
w: he- be, was * ich|tra- ge, was ich|schnei- * de, was * ich|schla- ge, je- der|Knap- pe thut mir's|nach, je- * der|Knap- pe thut mir's|
 c2 z z2 z | z2 z z[Q:3/8=80] G G | c2 c (BA) B | (cG) E G2 G | z6 | z2 z z A A | d2 d (^cB) c | %42
w: nach.|Und da|sitz' ich in * der|gro- * ssen Run- de,||in der|stil- len, küh- * len|
 (dA) F A2 A | z6 |[Q:3/8=75] z2 z z F F | F2 F F2 F | F2 C z F A | c2 _B G2 A | %48
w: Fei- * er- stun- de,||und der|Mei- ster sagt zu|al- len: eu- er|Werk hat mir ge-|
[Q:3/8=70] F2 C z F A | c2 _B G2 A | F2 C z c c | d2 d (_ed) c | d3- d2 z |[Q:3/8=60] g3- g2 =e | %54
w: fal- len, eu- er|Werk hat mir ge-|fal- len; und das|lie- be Mäd- * chen|sagt *|al- * len|
 d2 d f2 e | d2 z z2 z | g3- g2 e | d2 d f2 e | %58
w: ei- ne gu- te|Nacht,|al- * len|ei- ne gu- te|
 d2 z[Q:1/4=105]"^Etwas geschwinder." z2 z[Q:3/8=64][Q:3/8=75] |[Q:3/8=83] z2 z z!f! E E | %60
w: Nacht.|Hätt' ich|
 c2 B A ^G A | B2 E z e d | c3/2 B/ A A2 f | e2 B z B B | B B ^d ^f2 d | e2 B z ^c B | %66
w: tau- send Ar- me zu|rüh- ren, könnt' ich|brau- send die Rä- der|füh- ren! könnt' ich|we- hen durch al- le|Hai- ne, könnt' ich|
 B2 ^d ^f2 d | e2 B z e =d | (cB) A f2 e | d3 g2 f | (ed) c (Bc) d | e3- e2 ^G | %72
w: dre- hen al- le|Stei- ne, dass die|schö- * ne Mül- le-|rin merk- te|mei- * nen, mei- * nen|treu- * en|
 A2 z[Q:3/8=78] e2 d | (cB) A f2 e | d3 g2 f | (ed) c (Bc) d | e3- e2 ^G | A2 z z2 z | %78
w: Sinn, dass die|schö- * ne Mül- le|rin merk- te|mei- * nen, mei- * nen|treu- * en|Sinn,|
 z2 z!mp![Q:3/8=70] e3- | e2 d c2 B | (dc) B A3 | z6 |[Q:3/8=60] z2 z (e3- | ef) e (dc) B | %84
w: dass|_ die schö- ne|Mül- * le- rin||merk-|* * te mei- * nen|
 (dc) B A3 | z6 | z6 | z6 | z6 |] %89
w: treu- * en Sinn!|||||
V:2
 [C,E,A,][C,E,A,] z [E,A,E][E,A,E] z |[K:treble] [B,FA][B,FA] z z2 z | %2
 [B,EAB][B,EAB] z [B,^DAB][B,DAB] z | [E^GBe][EGBe] z!>(! E/F/E/F/E/F/!>)! | %4
 E/F/^G/A/B/A/ G/A/G/F/E/^D/ | E/F/E/=D/C/B,/[K:bass] C/D/C/B,/A,/^G,/ | %6
 E,/A,/C/E/C/A,/ E,/A,/C/E/C/A,/ | E,/A,/C/E/C/A,/ E,/A,/C/E/C/A,/ | %8
 E,/B,/D/E/D/B,/ E,/B,/D/E/D/B,/ | E,/A,/C/E/C/A,/ F,/A,/D/F/D/A,/ | %10
 E,/^G,/B,/E/B,/G,/ E,/G,/B,/E/B,/G,/ | ^F,/B,/^D/^F/D/B,/ F,/B,/D/F/D/B,/ | %12
 E,/^G,/B,/E/B,/G,/ E,/G,/B,/E/B,/G,/ | ^F,/B,/^D/^F/D/B,/ F,/B,/D/F/D/B,/ | %14
 E,/^G,/B,/E/B,/G,/ E,/G,/B,/E/B,/G,/ | E,/A,/^C/E/C/A,/ E,/^G,/D/E/D/G,/ | %16
 E,/A,/^C/E/C/A,/ E,/A,/C/E/C/A,/ | E,/A,/^C/E/C/A,/ E,/^G,/D/E/D/G,/ | %18
 E,/A,/^C/E/C/A,/ E,/A,/C/E/C/A,/ | E,/A,/=C/E/C/A,/ E,/A,/C/E/C/A,/ | %20
 ^F,/A,/B,/^D/B,/A,/ E,/B,/=D/E/D/B,/ | E,/A,/^C/E/C/A,/ D,/^F,/B,/D/B,/F,/ | %22
 ^C,/E,/A,/^C/A,/E,/ D,/E,/^G,/B,/G,/E,/ | ^C,/E,/A,/^C/A,/E,/ C,/E,/A,/C/A,/E,/ | %24
"_dim." =C,/E,/A,/=C/A,/E,/ C,/E,/A,/C/A,/E,/ | [C,E,A,C][C,E,A,C] z [C,E,A,C][C,E,A,C] z | %26
 [C,E,A,C][C,E,A,C] z [C,E,A,C][C,E,A,C] z | [D,F,G,D][D,F,G,D] z [F,G,DF][F,G,DF] z | %28
 [E,G,CE][E,G,CE] z [F,G,DF][F,G,DF] z | [E,G,CE][E,G,CE] z [G,A,E][G,A,E] z | %30
 [F,A,F][F,A,F] z [F,G,D][F,G,D] z | [E,G,E][E,G,E] z[K:treble] [^G,E][G,E] z | %32
 [A,E][A,E] z [B,E][B,E] z | [CE][CE] z [^G,E][G,E] z | [A,E][A,E] z [B,D][B,D] z | %35
[K:bass]{[E,G,]} (E3 F3) | [CE]3 [B,D]3 | (E3 F3) | [CE]3 [B,D]3 | [CE]3 [B,D]3 | (D2 ^C) D3 | %41
 (F3 G3) | [DF]3 [^CE]3 | [DF]3 [^CE]3 |[K:treble] (F2 E) [A,CF]3 | [A,CFA]6 | [A,CFA]6 | %47
 [_B,CEG]6 | [A,CFA]6 | [_B,CEG]6 | [A,CF]6 | [F,F]6 | [F,_B,DF]6 |!pp! [_B,=EG]6 | %54
 [A,DF]3 [G,A,^C]3 | [F,A,D]2 z [_B,-_EG-]3 | [B,=EG]6 | [A,DF]3 [G,A,^C]3 | %58
[K:bass] F,/A,/D/F/D/A,/ F,/=B,/D/F/D/B,/ | E,/B,/D/E/D/B,/ E,/^G,/D/E/D/G,/ | %60
 E,/A,/C/E/C/A,/ E,/A,/C/E/C/A,/ | E,/B,/D/E/D/B,/ E,/B,/D/E/D/B,/ | %62
 E,/A,/C/E/C/A,/ F,/A,/D/F/D/A,/ | E,/^G,/B,/E/B,/G,/ E,/G,/B,/E/B,/G,/ | %64
 ^F,/B,/^D/^F/D/B,/ F,/B,/D/F/D/B,/ | E,/^G,/B,/E/B,/G,/ E,/G,/B,/E/B,/G,/ | %66
 ^F,/B,/^D/^F/D/B,/ F,/B,/D/F/D/B,/ | E,/^G,/B,/E/B,/G,/ E,/B,/D/E/D/B,/ | %68
 E,/A,/C/E/C/A,/ F,/C/E/F/E/C/ | F,/B,/D/F/D/B,/[K:treble] [B,F]/G/[CF]/G/[DF]/G/ | %70
 E/G/D/G/C/G/ [B,D]/A/[CE]/A/[B,F]/A/ | A,/C/E/A/E/C/ B,/D/E/^G/E/D/ | %72
 A,/C/E/A/E/C/[K:bass] E,/B,/D/E/D/B,/ | E,/A,/C/E/C/A,/ F,/C/E/F/E/C/ | %74
 F,/B,/D/F/D/B,/[K:treble] [B,F]/G/[CF]/G/[DF]/G/ | E/G/D/G/C/G/ [B,D]/A/[CE]/A/[B,F]/A/ | %76
 A,/C/E/A/E/C/ B,/D/E/^G/E/D/ | A,/C/E/A/E/C/[K:bass] E,/A,/C/E/C/A,/ | [E,^G,DE]6- | [E,G,DE]6 | %80
 [E,A,CE]6 | A,/C/E/A/E/C/ E,/A,/C/E/C/A,/ | [E,^G,DE]6- | (([E,-G,DE-]6 | [E,A,CE]6)) | %85
 (DCB, A,F,E, | D,C,B,, A,,) z z | z2 z[K:treble] [B,DE^G] z z | [A,CEA] z z z2 z |] %89
V:3
!f! [A,,,A,,][A,,,A,,] z [C,,C,][C,,C,] z | [D,,D,][D,,D,] z z2 z | %2
 [E,,E,][E,,E,] z [F,,F,][F,,F,] z | [E,,E,][E,,E,] z z2 z |!p! z6 | z6 | A,,,zA,, A,,,zA,, | %7
 A,,,zA,, C,,zC, | ^G,,,z^G,, E,,,zE,, | A,,,zA,, D,,zD, | E,,zE, E,,z[^G,,,^G,,] | %11
 [A,,,A,,]z[B,,,B,,] [A,,,A,,]z[B,,,B,,] | [^G,,,^G,,]z[B,,,B,,] [G,,,G,,]z[B,,,B,,] | %13
 [A,,,A,,]z[B,,,B,,] [A,,,A,,]z[B,,,B,,] | [^G,,,^G,,]z[B,,,B,,] [G,,,G,,]zE,, | %15
 A,,,zA,, B,,,zB,, | ^C,,z^C, z2 z | A,,,zA,, B,,,zB,, | ^C,,z^C, z2 z | =C,,z=C, C,,zC, | %20
 B,,,zB,, ^G,,,z^G,, | A,,,zA,, D,,zD, | E,,zE, E,,zE, | A,,,zA,, A,,,zA,, | A,,,zA,, A,,,zA,, | %25
!pp! [A,,,A,,][A,,,A,,] z [A,,,A,,][A,,,A,,] z | [A,,,A,,][A,,,A,,] z [A,,,A,,][A,,,A,,] z | %27
 [B,,,B,,][B,,,B,,] z [B,,,B,,][B,,,B,,] z | [C,,C,][C,,C,] z [B,,,B,,][B,,,B,,] z | %29
 [C,,C,][C,,C,] z [^C,,^C,][C,,C,] z | [D,,D,][D,,D,] z [B,,,B,,][B,,,B,,] z | %31
 [C,,C,][C,,C,] z [E,,E,][E,,E,] z | [F,,F,][F,,F,] z [^G,,^G,][G,,G,] z | %33
 [A,,A,][A,,A,] z [E,,E,][E,,E,] z | [F,,F,][F,,F,] z [=G,,F,][G,,F,] z | (C,3 PD,3) | C,3 G,,3 | %37
 (C,3 D,3) | ([C,,C,]2 E,,) G,,3 | ([C,,C,]2 E,,) (G,,>A,,G,,/F,,/) | (E,,2 A,,) D,,3 | (D,3 E,3) | %42
 ([D,,D,]2 F,,) A,,3 | ([D,,D,]2 F,,) A,,2 (_B,,/A,,/) | (G,,2 C,) F,,3 |!p! [F,,,C,,F,,]6 | %46
 [F,,,C,,F,,]6 | [F,,,C,,F,,]6 | [F,,,C,,F,,]6 | [F,,,C,,F,,]6 | [F,,,C,,F,,]6 | [_B,,,F,,_B,,]6 | %52
 [_B,,,_B,,]6 | [G,,,G,,]6 | [A,,,A,,]6 | [D,,D,]2 z!>(! [G,,,G,,]3-!>)! |!p! [G,,,G,,]6 | %57
 [A,,,A,,]6 |!f! D,,D, z =B,,,=B,, z | ^G,,,^G,, z E,,E, z | A,,,A,, z C,,C, z | %61
 ^G,,,^G,, z E,,E, z | A,,,A,, z D,,D, z | E,,E, z [^G,,,^G,,][B,,,B,,] z | %64
 [A,,,A,,][B,,,B,,] z [A,,,A,,][B,,,B,,] z | [^G,,,^G,,][B,,,B,,] z [G,,,G,,][B,,,B,,] z | %66
 [A,,,A,,][B,,,B,,] z [A,,,A,,][B,,,B,,] z | [^G,,,^G,,][B,,,B,,] z G,,,G,, z | %68
 A,,,A,, z A,,,A,, z | B,,,B,, z [G,,,G,,][A,,,A,,][B,,,B,,] | %70
 [C,,C,][D,,D,][E,,E,] [F,,F,][E,,E,][D,,D,] | [C,,C,]3 [E,,E,]3 | A,,,A,, z ^G,,,^G,, z | %73
 A,,,A,, z A,,,A,, z | B,,,B,, z [G,,,G,,][A,,,A,,][B,,,B,,] | %75
 [C,,C,][D,,D,][E,,E,] [F,,F,][E,,E,][D,,D,] | [C,,C,]3 [E,,E,]3 | %77
 [A,,,A,,][C,,C,] z [A,,,A,,][C,,C,] z |!p! [A,,,E,,A,,]6- | [A,,,E,,A,,]6 | [A,,,E,,A,,]6 | %81
!f! [A,,,A,,][C,,C,] z [A,,,A,,][C,,C,] z |!p! [A,,,E,,A,,]6- | [A,,,E,,A,,]6 | [A,,,E,,A,,]6- | %85
 [A,,,E,,A,,]6- | A,,3 (A,,F,,E,,) | A,,, z z!f! [E,,E,] z z | [A,,,A,,] z z z2 z |] %89
V:4
 x6 |[K:treble] x6 | x6 | x6 | x6 | x3[K:bass] x3 | x6 | x6 | x6 | x6 | x6 | x6 | x6 | x6 | x6 | %15
 x6 | x6 | x6 | x6 | x6 | x6 | x6 | x6 | x6 | x6 | x6 | x6 | x6 | x6 | x6 | x6 | x3[K:treble] x3 | %32
 x6 | x6 | x6 |[K:bass] C3 (B,A,B,) | (CG,E,) G,3 | C3 (B,A,B,) | (CG,E,) G,>(G,A,/B,/) | %39
 (CG,E,) G,3 | [G,A,]3 [F,A,]3 | D3 (^CB,C) | DA,F, A,>A,B,/^C/ | DA,F, A,3 | %44
[K:treble] [_B,=C]3 x3 | x6 | x6 | x6 | x6 | x6 | x6 | [_B,D]3 [A,C][B,D][A,_E] | x6 | x6 | x6 | %55
 x6 | x6 | x6 |[K:bass] x6 | x6 | x6 | x6 | x6 | x6 | x6 | x6 | x6 | x6 | x6 | x3[K:treble] x3 | %70
 x6 | x6 | x3[K:bass] x3 | x6 | x3[K:treble] x3 | x6 | x6 | x3[K:bass] x3 | x6 | x6 | x6 | x6 | %82
 x6 | x6 | x6 | x6 | x6 | x3[K:treble] x3 | x6 |] %89
V:5
 x6 | x6 | x6 | x6 | x6 | x6 | x6 | x6 | x6 | x6 | x6 | x6 | x6 | x6 | x6 | x6 | x6 | x6 | x6 | %19
 x6 | x6 | x6 | x6 | x6 | x6 | x6 | x6 | x6 | x6 | x6 | x6 | x6 | x6 | x6 | x6 | C,,6 | %36
 (C,,2 E,,) G,,3 | C,,6 | x6 | x6 | x6 | [D,,A,,]6 | x6 | x6 | x6 | x6 | x6 | x6 | x6 | x6 | x6 | %51
 x6 | x6 | x6 | x6 | x6 | x6 | x6 | x6 | x6 | x6 | x6 | x6 | x6 | x6 | x6 | x6 | x6 | x6 | x6 | %70
 x6 | x6 | x6 | x6 | x6 | x6 | x6 | x6 | x6 | x6 | x6 | x6 | x6 | x6 | x6 | x6 | [A,,,E,,]6 | x6 | %88
 x6 |] %89

